-- fractals?

d1 $ n (foldr (append) "0" ["a c e f", "0 5", "0 [7 12]", "24"]) # sound "future" # speed 2

let system1 = p(take 128 $ lindenmayer 5 "0:0 2 3 1,1:5,2:1,5:6 [. 2] 0,6:7 8 7" "0")

let system2 = p(take 128 $ lindenmayer 5 "0:-1? 1 4,1:3 0,3:4 5,5:0" "0")

d1
$ note
((scaleP "melodicMinor"
$ slow 16
$ system1 - slow 4 system2 ))
#s "pe-gtr:9" # gain 1.2

hush
