hush

d1
$ (note
  $ (+ "-12")
  $ scale "harmonicMajor"
  $ outside 2 (iter 4)
  $ soak 2 (inside 4 (rot 1.sometimes (+"-2 1 3")))
  $ "0 2 -1 . <1 3>"
)
#s "modal03"
#pF "spread" "1"
#pF "muted" 0.1
#pF "overdrive" 2
#pF "harmonic" 3
-- #lpf 8000
#gain 1
#orbit 1
#delay 0.4
#delaytime 0.333
