-- intro to tidal
setcps(1)

d1
$ chop "<4 16 8 24>"
$ every 4 (slow 2 )
$ stack [
 sound "~ <sd cp>" # delay 0.5 # delaytime "<0.33 0.125 0.6>"
 ,
 sound "bd"
 ,
 sound "hh"
] # orbit 0

d2 $ note "cs gs" #s "pm03" # pF "harmonic" 6

d1 $ sound "EP12*8" # speed 0.5 #n (run 8)

hush



hush


d1 $ cat [
sound "bd*2 sn"
,
sound "jvbass*3"
,
sound "drum*2",
sound "ht mt"]

hush
